newicons/diemaus.svg

<?xml version="1.0" encoding="UTF-8" standalone="no"?>
<svg
   id="Layer_1"
   data-name="Layer 1"
   version="1.1"
   viewBox="0 0 48 48"
   xml:space="preserve"
   xmlns="http://www.w3.org/2000/svg"
   xmlns:svg="http://www.w3.org/2000/svg"><defs
     id="defs1"><style
       id="style1">
      .cls-1 {
        fill: none;
        stroke: #fff;
        stroke-linecap: round;
        stroke-linejoin: round;
      }
    </style></defs><path
     style="fill:none;stroke:#ffffff;stroke-width:1;stroke-linecap:round;stroke-linejoin:round;stroke-dashoffset:0.5;stroke-opacity:1"
     d="M 21.472747,16.15459 C 20.649183,13.914972 18.693953,10.519117 18.198689,9.9114058 17.703426,9.3036948 17.240119,8.9371359 16.631111,8.7816867 16.040644,8.6309706 13.141345,8.8623066 11.571204,9.5150131 10.001063,10.16772 9.6618196,11.139241 9.4083418,11.457337 9.154864,11.775433 7.3248508,19.504108 7.3248508,19.504108 11.554929,15.605099 16.45876,15.564429 21.472747,16.15459 Z"
     id="path1" /><path
     style="fill:none;stroke:#ffffff;stroke-width:1;stroke-linecap:round;stroke-linejoin:round;stroke-dashoffset:0.5;stroke-opacity:1"
     d="m 25.679415,16.293327 c 1.23717,-2.455662 2.701406,-4.527493 4.587698,-6.7009207 0.365171,-0.4207574 0.90192,-0.6601013 1.422886,-0.7102131 3.470615,-0.3338397 5.626656,0.7641845 6.561391,1.8055478 0.306569,0.289342 0.383755,0.632926 0.476601,1.024487 0.563009,2.412907 1.027311,4.919334 1.317589,7.454946 -4.324276,-3.335455 -9.197023,-3.863282 -14.366165,-2.873847 z"
     id="path2" /><path
     style="fill:none;stroke:#ffffff;stroke-width:1;stroke-linecap:round;stroke-linejoin:round;stroke-dashoffset:0.5;stroke-opacity:1"
     d="m 31.414299,15.892341 c -0.948135,1.076776 -1.301577,2.056536 -1.250418,2.768509 0.08926,1.242241 0.446406,2.452961 2.255626,2.726123 1.578307,0.238298 2.633606,-0.81537 3.095472,-1.823662 0.501631,-1.095103 0.302579,-1.911456 0,-2.854785"
     id="path3" /><path
     style="fill:none;stroke:#ffffff;stroke-width:1;stroke-linecap:round;stroke-linejoin:round;stroke-dashoffset:0.5;stroke-opacity:1"
     d="m 16.095246,15.914921 c 0.890023,1.154479 1.145495,1.980662 1.111305,2.741368 -0.05591,1.243927 -0.773674,2.474038 -2.242233,2.636011 -1.481215,0.163369 -2.582371,-0.583615 -3.07563,-1.867471 -0.358889,-0.934118 0.06293,-1.828823 0.295411,-2.80025"
     id="path4" /><path
     style="fill:none;stroke:#ffffff;stroke-width:1;stroke-linecap:round;stroke-linejoin:round;stroke-dashoffset:0.5;stroke-opacity:1"
     d="m 20.254052,16.025054 c 0.419274,1.542864 0.506395,3.090257 0,4.608772 -0.591554,1.77388 -2.511876,3.862796 -4.464624,4.082845 -1.920639,0.216431 -3.682934,-0.19764 -5.170677,-1.446833 -1.3256914,-1.113126 -1.8793942,-2.834879 -2.0155377,-4.81543"
     id="path5" /><path
     style="fill:none;stroke:#ffffff;stroke-width:1;stroke-linecap:round;stroke-linejoin:round;stroke-dashoffset:0.5;stroke-opacity:1"
     d="m 26.991739,16.074591 c -0.371071,1.229401 -0.429222,2.6186 -0.08207,3.825625 0.663851,2.308193 2.059337,4.215829 4.424938,4.756996 2.858117,0.653836 4.802039,-0.74874 6.171102,-2.120701 0.989082,-0.991176 1.549803,-2.456379 1.742153,-3.948891"
     id="path6" /><path
     id="rect6"
     style="fill:none;stroke:#ffffff;stroke-width:1;stroke-linecap:round;stroke-linejoin:round;stroke-dashoffset:0.5"
     d="m 26.076269,34.110763 c 0,0.515586 0,1.004745 0,1.467479 0,1.501622 -5.575819,1.521492 -5.575819,0 v -1.467479 c 0,-1.708719 5.575819,-1.736314 5.575819,0 z" /><path
     style="fill:none;stroke:#ffffff;stroke-width:1;stroke-linecap:round;stroke-linejoin:round;stroke-dashoffset:0.5;stroke-opacity:1"
     d="m 29.171742,32.80308 c 3.987476,-0.130247 9.985336,-3.117203 13.157893,-4.852892"
     id="path7" /><path
     style="fill:none;stroke:#ffffff;stroke-width:1;stroke-linecap:round;stroke-linejoin:round;stroke-dashoffset:0.5;stroke-opacity:1"
     d="m 28.993157,34.507568 c 3.712165,0.492146 10.660041,0.16703 13.40763,-1.114949"
     id="path8" /><path
     style="fill:none;stroke:#ffffff;stroke-width:1;stroke-linecap:round;stroke-linejoin:round;stroke-dashoffset:0.5;stroke-opacity:1"
     d="M 28.775093,36.152598 C 32.336167,37.151143 38.676808,37.120893 42.5,36.770202"
     id="path9" /><path
     style="fill:none;stroke:#ffffff;stroke-width:1;stroke-linecap:round;stroke-linejoin:round;stroke-dashoffset:0.5;stroke-opacity:1"
     d="M 17.605996,32.422668 C 13.986292,31.78165 8.8939611,30.157479 5.9770527,29.175846"
     id="path10" /><path
     style="fill:none;stroke:#ffffff;stroke-width:1;stroke-linecap:round;stroke-linejoin:round;stroke-dashoffset:0.5;stroke-opacity:1"
     d="m 17.861363,34.130996 c -3.3931,0.270797 -9.1194403,0.433869 -12.3613628,0"
     id="path11" /><path
     style="fill:none;stroke:#ffffff;stroke-width:1;stroke-linecap:round;stroke-linejoin:round;stroke-dashoffset:0.5;stroke-opacity:1"
     d="M 18.002645,35.994041 C 14.753319,36.81861 9.6941452,37.794785 5.9291481,37.70814"
     id="path12" /><path
     style="fill:none;stroke:#ffffff;stroke-width:1;stroke-linecap:round;stroke-linejoin:round;stroke-dashoffset:0.5;stroke-opacity:1"
     d="M 40.619662,31.996054 C 33.934012,32.808026 30.592979,39.33463 23.099854,39.26428 15.606729,39.19393 13.724258,32.640432 7.9002912,32.208491"
     id="path13" /><path
     style="fill:none;stroke:#ffffff;stroke-width:1;stroke-linecap:round;stroke-linejoin:round;stroke-dashoffset:0.5;stroke-opacity:1"
     d="m 41.311841,30.865503 -0.692179,1.130551 0.949842,0.636029"
     id="path14" /><path
     style="fill:none;stroke:#ffffff;stroke-width:1;stroke-linecap:round;stroke-linejoin:round;stroke-dashoffset:0.5;stroke-opacity:1"
     d="m 7.5036425,30.932174 0.3966487,1.276317 -0.6835577,1.184128"
     id="path15" /></svg>

<?xml version="1.0" encoding="UTF-8"?><svg id="b" xmlns="http://www.w3.org/2000/svg" viewBox="0 0 48 48"><defs><style>.s{fill:none;stroke:#fff;stroke-linecap:round;stroke-linejoin:round;}</style></defs><path id="c" class="s" d="M21.4727,16.1535c-.8236-2.2396-2.7788-5.6355-3.2741-6.2432-.4953-.6077-.9586-.9743-1.5676-1.1297-.5905-.1507-3.4898.0806-5.0599.7333-1.5701.6527-1.9094,1.6242-2.1629,1.9423-.2535.3181-2.0835,8.0468-2.0835,8.0468,4.2301-3.899,9.1339-3.9397,14.1479-3.3495Z"/><path id="d" class="s" d="M25.6794,16.2922c1.2372-2.4557,2.7014-4.5275,4.5877-6.7009.3652-.4208.9019-.6601,1.4229-.7102,3.4706-.3338,5.6267.7642,6.5614,1.8055.3066.2893.3838.6329.4766,1.0245.563,2.4129,1.0273,4.9193,1.3176,7.4549-4.3243-3.3355-9.197-3.8633-14.3662-2.8738Z"/><path id="e" class="s" d="M31.4143,15.8912c-.9481,1.0768-1.3016,2.0565-1.2504,2.7685.0893,1.2422.4464,2.453,2.2556,2.7261,1.5783.2383,2.6336-.8154,3.0955-1.8237.5016-1.0951.3026-1.9115,0-2.8548"/><path id="f" class="s" d="M16.0952,15.9138c.89,1.1545,1.1455,1.9807,1.1113,2.7414-.0559,1.2439-.7737,2.474-2.2422,2.636-1.4812.1634-2.5824-.5836-3.0756-1.8675-.3589-.9341.0629-1.8288.2954-2.8003"/><path id="g" class="s" d="M20.2541,16.0239c.4193,1.5429.5064,3.0903,0,4.6088-.5916,1.7739-2.5119,3.8628-4.4646,4.0828-1.9206.2164-3.6829-.1976-5.1707-1.4468-1.3257-1.1131-1.8794-2.8349-2.0155-4.8154"/><path id="h" class="s" d="M26.9917,16.0735c-.3711,1.2294-.4292,2.6186-.0821,3.8256.6639,2.3082,2.0593,4.2158,4.4249,4.757,2.8581.6538,4.802-.7487,6.1711-2.1207.9891-.9912,1.5498-2.4564,1.7422-3.9489"/><path id="i" class="s" d="M26.0763,34.1096v1.4675c0,1.5016-5.5758,1.5215-5.5758,0v-1.4675c0-1.7087,5.5758-1.7363,5.5758,0Z"/><path id="j" class="s" d="M29.1717,32.802c3.9875-.1302,9.9853-3.1172,13.1579-4.8529"/><path id="k" class="s" d="M28.9932,34.5065c3.7122.4921,10.66.167,13.4076-1.1149"/><path id="l" class="s" d="M28.7751,36.1515c3.5611.9985,9.9017.9683,13.7249.6176"/><path id="m" class="s" d="M17.606,32.4216c-3.6197-.641-8.712-2.2652-11.6289-3.2468"/><path id="n" class="s" d="M17.8614,34.1299c-3.3931.2708-9.1194.4339-12.3614,0"/><path id="o" class="s" d="M18.0026,35.9929c-3.2493.8246-8.3085,1.8007-12.0735,1.7141"/><path id="p" class="s" d="M40.6197,31.9949c-6.6856.812-10.0267,7.3386-17.5198,7.2682-7.4931-.0703-9.3756-6.6238-15.1996-7.0558"/><path id="q" class="s" d="M41.3118,30.8644l-.6922,1.1306.9498.636"/><path id="r" class="s" d="M7.5036,30.9311l.3966,1.2763-.6836,1.1841"/></svg>
